!!!!SEGMENT: pl-cz--iii-47--010_bulakowski-stefan--msza-as-benedictus.krn
!!!cenid: 18xx:701
!!!COM: Bułakowski, Stefan
!!!COM-rismid: pe30085804
!!!CDT: 1784-1852
!!!CNT:
!!!OTL: Msza As – Benedictus
!!!PDT:
!!!AGN: Sacred; Mass
!!!SMS-siglum: PL-CZ
!!!SMS-shelfmark: III-47
!!!SMS-shelfwork: 001-010 M
!!!SMS-variant:
!!!SMS-altvar:
!!!NIFC-rismid: 300000053
!!!URL-scan: http://repozytorium.nifc.pl/skany/pl-cz-nut--iii-47
!!!ONB-nifc: UWAGA: części Mszy: Kyrie, Gloria, Justus ut palma, Credo, Et incarnatus, Et resurrexit, Veritas mea, Sanctus, Pleni, Benedictus, Agnus Dei, Dona nobis
**kern	**text	**dynam	**kern	**text	**dynam	**kern	**text	**dynam	**kern	**dynam	**kern	**dynam	**kern	**dynam	**kern	**dynam	**kern	**dynam	**kern	**dynam	**kern
*part10	*part10	*part10	*part9	*part9	*part9	*part8	*part8	*part8	*part7	*part7	*part6	*part6	*part5	*part5	*part4	*part4	*part3	*part3	*part2	*part2	*part1
*staff10	*staff10	*	*staff9	*staff9	*	*staff8	*staff8	*	*staff7	*	*staff6	*	*staff5	*	*staff4	*	*staff3	*	*staff2	*	*staff1
*I"Basso.	*	*	*I"Tenore 2do	*	*	*I"Tenore 1mo	*	*	*I"Trombone	*	*I"Corno. 2do in As.	*	*I"Corno 1mo in As.	*	*I"Fagotto. 2do	*	*I"Fagotto 1mo	*	*I"Clarinetto. 2do in B.	*	*I"Clarinetto. 1mo in B.
*I'B	*	*	*I'T II	*	*	*I'T I	*	*	*I'trb	*	*I'cor II	*	*I'cor I	*	*I'fag II	*	*I'fag I	*	*I'cl II	*	*I'cl I
*group3	*	*	*group3	*	*	*group3	*	*	*group2	*	*group2	*	*group2	*	*group1	*	*group1	*	*group1	*	*group1
*clefF4	*	*	*clefC4	*	*	*clefC4	*	*	*clefF4	*	*clefG2	*	*clefG2	*	*clefF4	*	*clefF4	*	*clefG2	*	*clefG2
*	*	*	*	*	*	*	*	*	*	*	*ITrd5c9	*	*ITrd5c9	*	*	*	*	*	*ITrd1c2	*	*ITrd1c2
*k[b-e-a-]	*	*	*k[b-e-a-]	*	*	*k[b-e-a-]	*	*	*k[b-e-a-]	*	*k[b-e-a-]	*	*k[b-e-a-]	*	*k[b-e-a-]	*	*k[b-e-a-]	*	*k[b-e-a-]	*	*k[b-e-a-]
*M2/4	*	*	*M2/4	*	*	*M2/4	*	*	*M2/4	*	*M2/4	*	*M2/4	*	*M2/4	*	*M2/4	*	*M2/4	*	*M2/4
=1	=1	=1	=1	=1	=1	=1	=1	=1	=1	=1	=1	=1	=1	=1	=1	=1	=1	=1	=1	=1	=1
*2\right	*	*	*2\right	*	*	*2\right	*	*	*2\right	*	*2\right	*	*2\right	*	*2\right	*	*2\right	*	*2\right	*	*2\right
*	*	*	*	*	*	*	*	*	*	*	*	*	*	*	*	*	*	*	*tremolo	*	*
*	*	*	*	*	*	*	*	*	*	*	*	*	*	*	*	*	*	*	*tremolo	*	*
!LO:TX:a:B:t=Benedictus	!	!	!LO:N:vis=00	!	!	!LO:N:vis=00	!	!	!LO:TX:a:B:t=Benedictus	!	!LO:TX:a:B:t=Benedictus	!	!LO:TX:a:B:t=Benedictus	!	!LO:TX:a:B:t=Benedictus	!	!LO:TX:a:B:t=Benedictus	!	!LO:TX:a:B:t=Benedictus	!	!
!LO:TX:a:t=P:problem:brak oznaczenia tempa	!	!	!LO:TX:a:t=4.	!	!	!LO:TX:a:t=4	!	!	!	!LO:DY:b:t=p.	!	!LO:DY:b	!LO:TX:a:t=P:problem:dopisane ołówkiem "in Es Corno"	!	!LO:TX:a:t=P:problem:mixed beam	!	!	!LO:DY:b:t=p.	!	!LO:DY:b	!
!LO:TX:a:t=4	!	!	!LO:TX:a:B:t=Adagio	!	!	!LO:TX:a:B:t=Adagio	!	!	!LO:TX:a:B:t=Adagio	!	!LO:TX:a:B:t=Adagio	!	!LO:TX:a:B:t=Adagio	!LO:DY:b:t=p.	!LO:TX:a:B:t=Adagio	!LO:DY:b:t=p.	!LO:TX:a:B:t=Adagio	!	!LO:TX:a:B:t=Adagio	!	!LO:TX:a:B:t=Adagio.
!LO:N:vis=00	!	!	!LO:TX:a:B:t=Benedictus	!	!	!LO:TX:a:B:t=Benedictus	!	!	!	!	!	!	!	!	!	!	!	!	!	!	!
0r	.	.	0r	.	.	0r	.	.	8E-\	p	16r	p	16r	p	16EE-/LL	p	16r	p	(16g\LL	p	(8.ee-\L
.	.	.	.	.	.	.	.	.	.	.	16G/LL	.	16e-\LL	.	16E-\	.	16B-\LL	.	16b-\	.	.
.	.	.	.	.	.	.	.	.	8r	.	16G/	.	16e-\	.	16E-\	.	16B-\	.	16g\	.	.
.	.	.	.	.	.	.	.	.	.	.	16G/JJ	.	16e-\JJ	.	16E-\JJ	.	16B-\JJ	.	16b-\	.	32ff\LL
.	.	.	.	.	.	.	.	.	.	.	.	.	.	.	.	.	.	.	.	.	32ee-\JJJ)
.	.	.	.	.	.	.	.	.	4r	.	16G/LL	.	16e-\LL	.	16E-\LL	.	16B-\LL	.	16g\	.	(16dd\LL
.	.	.	.	.	.	.	.	.	.	.	16G/	.	16e-\	.	16E-\	.	16B-\	.	16b-\	.	16ee-\
.	.	.	.	.	.	.	.	.	.	.	16G/	.	16e-\	.	16E-\	.	16B-\	.	16g\	.	16gg\
.	.	.	.	.	.	.	.	.	.	.	16G/JJ	.	16e-\JJ	.	16E-\JJ	.	16B-\JJ	.	16b-\)JJ	.	16bb-\JJ)
=2	=2	=2	=2	=2	=2	=2	=2	=2	=2	=2	=2	=2	=2	=2	=2	=2	=2	=2	=2	=2	=2
!	!	!	!	!	!	!	!	!	!	!	!	!	!	!	!LO:TX:a:t=P:problem:mixed beam	!	!	!	!	!	!
.	.	.	.	.	.	.	.	.	8AA-/	.	16r	.	16r	.	16AA-/LL	.	16r	.	(16a-\LL	.	(16bb-\LL
.	.	.	.	.	.	.	.	.	.	.	16E-/LL	.	16e-\LL	.	16A-\	.	16c\LL	.	16cc\	.	16cc\J)
.	.	.	.	.	.	.	.	.	8r	.	16E-/	.	16e-\	.	16A-\	.	16c\	.	16a-\	.	8cc'\J
.	.	.	.	.	.	.	.	.	.	.	16E-/JJ	.	16e-\JJ	.	16A-\JJ	.	16c\JJ	.	16cc\	.	.
.	.	.	.	.	.	.	.	.	4r	.	16E-/LL	.	16e-\LL	.	16A-\LL	.	16c\LL	.	16a-\	.	24r
!	!	!	!	!	!	!	!	!	!	!	!	!	!	!	!	!	!	!	!	!	!LO:TX:a:t=P:problem:klamra łukowa z numerem
.	.	.	.	.	.	.	.	.	.	.	.	.	.	.	.	.	.	.	.	.	24aa-\LL
.	.	.	.	.	.	.	.	.	.	.	16E-/	.	16e-\	.	16A-\	.	16c\	.	16cc\	.	.
.	.	.	.	.	.	.	.	.	.	.	.	.	.	.	.	.	.	.	.	.	24gg\
.	.	.	.	.	.	.	.	.	.	.	16E-/	.	16e-\	.	16A-\	.	16c\	.	16a-\	.	24bb-\
.	.	.	.	.	.	.	.	.	.	.	.	.	.	.	.	.	.	.	.	.	24aa-\
.	.	.	.	.	.	.	.	.	.	.	16E-/JJ	.	16e-\JJ	.	16A-\JJ	.	16c\JJ	.	16cc\)JJ	.	.
.	.	.	.	.	.	.	.	.	.	.	.	.	.	.	.	.	.	.	.	.	24ff\JJ
*	*	*	*	*	*	*	*	*	*	*	*	*	*	*	*	*	*	*	*Xtremolo	*	*
!	!	!	!	!	!	!	!	!	!	!	!LO:LB:g=original	!	!	!	!LO:LB:g=original	!	!LO:LB:g=original	!	!	!	!LO:LB:g=original
=3	=3	=3	=3	=3	=3	=3	=3	=3	=3	=3	=3	=3	=3	=3	=3	=3	=3	=3	=3	=3	=3
.	.	.	.	.	.	.	.	.	8BB-/	.	16r	.	16r	.	8BB-/	.	16r	.	16g\LL	.	(24gg\LL
.	.	.	.	.	.	.	.	.	.	.	.	.	.	.	.	.	.	.	.	.	24bb-\)
.	.	.	.	.	.	.	.	.	.	.	16e-\LL	.	16g\LL	.	.	.	16B-\LL	.	16b-\	.	.
.	.	.	.	.	.	.	.	.	.	.	.	.	.	.	.	.	.	.	.	.	24aa-'\
.	.	.	.	.	.	.	.	.	8r	.	16e-\	.	16g\	.	8r	.	16B-\	.	16g\	.	24gg'\
.	.	.	.	.	.	.	.	.	.	.	.	.	.	.	.	.	.	.	.	.	24ff'\
.	.	.	.	.	.	.	.	.	.	.	16e-\JJ	.	16g\JJ	.	.	.	16B-\JJ	.	16b-\JJ	.	.
.	.	.	.	.	.	.	.	.	.	.	.	.	.	.	.	.	.	.	.	.	24ee-'\JJ
.	.	.	.	.	.	.	.	.	8BB-/	.	16r	.	16r	.	8BB-/	.	16r	.	16a-\LL	.	24dd'\LL
.	.	.	.	.	.	.	.	.	.	.	.	.	.	.	.	.	.	.	.	.	24cc'\
.	.	.	.	.	.	.	.	.	.	.	16B-/LL	.	16f\LL	.	.	.	16B-\LL	.	16b-\	.	.
.	.	.	.	.	.	.	.	.	.	.	.	.	.	.	.	.	.	.	.	.	24b-'\JJ
.	.	.	.	.	.	.	.	.	8r	.	16B-/	.	16f\	.	8r	.	16B-\	.	16a-\	.	16.aa-\LL
.	.	.	.	.	.	.	.	.	.	.	16B-/JJ	.	16f\JJ	.	.	.	16B-\JJ	.	16b-\JJ	.	.
.	.	.	.	.	.	.	.	.	.	.	.	.	.	.	.	.	.	.	.	.	32dd\JJk
!	!	!	!	!	!	!	!	!	!	!	!	!	!	!	!	!	!	!	!LO:LB:g=original	!	!
=4	=4	=4	=4	=4	=4	=4	=4	=4	=4	=4	=4	=4	=4	=4	=4	=4	=4	=4	=4	=4	=4
.	.	.	.	.	.	.	.	.	8r	.	8r	.	8r	.	8r	.	8.A-\L	.	8.a-\L	.	8.ff\L
.	.	.	.	.	.	.	.	.	8BB-\L	.	8B-/L	.	8f\L	.	8BB-\L	.	.	.	.	.	.
.	.	.	.	.	.	.	.	.	.	.	.	.	.	.	.	.	32B-\LL	.	32b-\LL	.	32gg\LL
.	.	.	.	.	.	.	.	.	.	.	.	.	.	.	.	.	32A-\JJJ	.	32a-\JJJ	.	32ff\JJJ
.	.	.	.	.	.	.	.	.	8E-\J	.	8G/J	.	8e-\J	.	8E-\J	.	8G\	.	8g\	.	16ee-\LL
.	.	.	.	.	.	.	.	.	.	.	.	.	.	.	.	.	.	.	.	.	16b-\
.	.	.	.	.	.	.	.	.	8r	.	8r	.	8r	.	8r	.	8r	.	8r	.	16cc\
.	.	.	.	.	.	.	.	.	.	.	.	.	.	.	.	.	.	.	.	.	16dd\JJ
=5	=5	=5	=5	=5	=5	=5	=5	=5	=5	=5	=5	=5	=5	=5	=5	=5	=5	=5	=5	=5	=5
*	*	*	*	*	*	*	*	*	*	*	*	*	*	*	*	*	*	*	*tremolo	*	*
!LO:TX:a:t=Solo	!	!	!LO:TX:a:t=Solo.	!	!LO:DY:b	!LO:TX:a:t=Solo.	!	!	!	!	!	!	!	!	!LO:TX:a:t=P:problem:mixed beam	!	!	!	!	!LO:DY:b	!
8r	.	.	8r	.	p	8.e-\	Be-	.	8E-\	.	16r	.	16r	.	16EE-/LL	.	16r	.	(16g\LL	p	8.ee-\L
.	.	.	.	.	.	.	.	.	.	.	16G/LL	.	16e-\LL	.	16E-\	.	16B-\LL	.	16b-\	.	.
16G\	Be-	.	16B-\	Be-	.	.	.	.	8r	.	16G/	.	16e-\	.	16E-\	.	16B-\	.	16g\	.	.
16G\	-ne-	.	16B-\	-ne-	.	16e-\	-ne-	.	.	.	16G/JJ	.	16e-\JJ	.	16E-\JJ	.	16B-\JJ	.	16b-\	.	16ee-\Jk
*	*	*	*	*	*	*	*	*	*	*	*	*	*tremolo	*	*	*	*	*	*	*	*
*	*	*	*	*	*	*	*	*	*	*	*	*	*tremolo	*	*	*	*	*	*	*	*
!	!	!	!	!	!	!	!	!	!	!	!	!	!LO:TX:a:t=P:problem:cztery kropki nad tremolo [ilość nut lub staccato]	!	!	!	!	!	!	!	!
8G\	-di-	.	8B-\	-di-	.	(16d\LL	-di-	.	4r	.	16G/LL	.	16e-\LL	.	16E-\LL	.	16B-\LL	.	16g\	.	16dd\LL
.	.	.	.	.	.	16e-\JJ)	.	.	.	.	16G/	.	16e-\	.	16E-\	.	16B-\	.	16b-\	.	16ee-\
16G\	-ctus	.	16B-\	-ctus	.	16f\	-ctus	.	.	.	16G/	.	16e-\	.	16E-\	.	16B-\	.	16g\	.	16ff\
16G\	qui	.	16B-\	qui	.	16e-\	qui	.	.	.	16G/JJ	.	16e-\JJ	.	16E-\JJ	.	16B-\JJ	.	16b-\)JJ	.	16ee-\JJ
*	*	*	*	*	*	*	*	*	*	*	*	*	*Xtremolo	*	*	*	*	*	*	*	*
*	*	*	*	*	*	*	*	*	*	*	*	*	*Xtremolo	*	*	*	*	*	*	*	*
!	!	!	!	!	!	!	!	!	!	!	!	!	!LO:LB:g=original	!	!	!	!	!	!	!	!
=6	=6	=6	=6	=6	=6	=6	=6	=6	=6	=6	=6	=6	=6	=6	=6	=6	=6	=6	=6	=6	=6
!	!	!	!	!	!	!	!	!	!	!	!	!	!	!	!LO:TX:a:t=P:problem:mixed beam	!	!	!	!	!	!
8r	.	.	(16B-\LL	ve-	.	(16d\LL	ve-	.	8AA-/	.	16r	.	16r	.	16AA-/LL	.	16r	.	(16a-\LL	.	(16dd\LL
.	.	.	16A-\JJ)	.	.	16c\JJ)	.	.	.	.	16E-/LL	.	16e-\LL	.	16A-\	.	16c\LL	.	16cc\	.	16cc\J)
8AA-/	qui	.	8A-\	-nit	.	8c\	-nit	.	8r	.	16E-/	.	16e-\	.	16A-\	.	16c\	.	16a-\	.	8cc'\J
.	.	.	.	.	.	.	.	.	.	.	16E-/JJ	.	16e-\JJ	.	16A-\JJ	.	16c\JJ	.	16cc\	.	.
8AA-/	ve-	.	16r	.	.	16r	.	.	4r	.	16E-/LL	.	16e-\LL	.	16A-\LL	.	16c\LL	.	16a-\	.	16r
.	.	.	(16c\LL	qui	.	(16e-\LL	qui	.	.	.	16E-/	.	16e-\	.	16A-\	.	16c\	.	16cc\	.	16ee-\LL
8AA-/	-nit	.	16B-\	.	.	16d\	.	.	.	.	16E-/	.	16e-\	.	16A-\	.	16c\	.	16a-\	.	16dd\
.	.	.	16A-\JJ)	.	.	16c\JJ)	.	.	.	.	16E-/JJ	.	16e-\JJ	.	16A-\JJ	.	16c\JJ	.	16cc\)JJ	.	16cc\JJ
*	*	*	*	*	*	*	*	*	*	*	*	*	*	*	*	*	*	*	*Xtremolo	*	*
!LO:LB:g=original	!	!	!LO:LB:g=original	!	!	!LO:LB:g=original	!	!	!LO:LB:g=original	!	!LO:LB:g=original	!	!	!	!	!	!LO:LB:g=original	!	!	!	!LO:LB:g=original
=7	=7	=7	=7	=7	=7	=7	=7	=7	=7	=7	=7	=7	=7	=7	=7	=7	=7	=7	=7	=7	=7
!	!	!	!	!	!	!	!	!	!	!	!	!	!	!	!LO:TX:a:t=P:problem:mixed beam	!	!	!	!	!	!
8BB-/	ve-	.	8G/	ve-	.	8B-\	ve-	.	8BB-/	.	16r	.	16r	.	16BB-/LL	.	16r	.	16g\LL	.	16b-\LL
.	.	.	.	.	.	.	.	.	.	.	16e-\LL	.	16g\LL	.	16B-\	.	16B-\LL	.	16b-\	.	16bb-\
16BB-/	-nit	.	16F/	-nit	.	16A-\	-nit	.	8r	.	16e-\	.	16g\	.	16B-\	.	16B-\	.	16g\	.	16aa-\
16BB-/	in	.	16E-/	in	.	16G\	in	.	.	.	16e-\JJ	.	16g\JJ	.	16B-\JJ	.	16B-\JJ	.	16b-\JJ	.	16gg\JJ
!	!	!	!	!	!	!	!	!	!	!	!	!	!	!	!LO:TX:a:t=P:problem:mixed beam	!	!	!	!	!	!
8BB-/	no-	.	(16D/LL	no-	.	(16F/LL	no-	.	8BB-/	.	16r	.	16r	.	16BB-/LL	.	16r	.	16a-\LL	.	16ff\LL
.	.	.	16E-/JJ)	.	.	16G/JJ)	.	.	.	.	16B-/LL	.	16f\LL	.	16B-\	.	16d\LL	.	16b-\	.	16gg\
16BB-/	-mi-	.	16F/	-mi-	.	16A-\	-mi-	.	8r	.	16B-/	.	16f\	.	16B-\	.	16d\	.	16a-\	.	16aa-\
16BB-/	-ne	.	16G/	-ne	.	16B-\	-ne	.	.	.	16B-/JJ	.	16f\JJ	.	16B-\JJ	.	16d\JJ	.	16b-\JJ	.	16bb-\JJ
!	!	!	!	!	!	!	!	!	!	!	!	!	!	!	!LO:LB:g=original	!	!	!	!	!	!
=8	=8	=8	=8	=8	=8	=8	=8	=8	=8	=8	=8	=8	=8	=8	=8	=8	=8	=8	=8	=8	=8
!	!	!	!	!	!	!	!	!	!	!	!	!	!	!	!LO:TX:a:t=P:problem:mixed beam	!	!	!	!	!	!
8.BB-/	do-	.	8.F/	do-	.	8.A-\	do-	.	4BB-/	.	16r	.	16r	.	16BB-/LL	.	16r	.	8.ff\L	.	8.aa-\L
.	.	.	.	.	.	.	.	.	.	.	16B-/LL	.	16f\LL	.	16B-\	.	16d\LL	.	.	.	.
.	.	.	.	.	.	.	.	.	.	.	16B-/	.	16f\	.	16B-\	.	16d\	.	.	.	.
!	!	!	!LO:N:vis=16	!	!	!	!	!	!	!	!	!	!	!	!	!	!	!	!	!	!
16BB-/	-mi-	.	(32G/LLL	-mi-	.	(32B-\LLL	-mi-	.	.	.	16B-/JJ	.	16f\JJ	.	16B-\JJ	.	16d\JJ	.	32gg\LL	.	32bb-\LL
!	!	!	!LO:N:vis=16	!	!	!	!	!	!	!	!	!	!	!	!	!	!	!	!	!	!
.	.	.	32F/JJJ)	.	.	32A-\JJJ)	.	.	.	.	.	.	.	.	.	.	.	.	32ff\JJJ	.	32aa-\JJJ
8E-\	-ni	.	8E-/	-ni	.	8G\	-ni	.	8E-\	.	8G/	.	8e-\	.	8E-\	.	8e-\	.	8ee-\	.	16gg\LL
.	.	.	.	.	.	.	.	.	.	.	.	.	.	.	.	.	.	.	.	.	16b-\
8r	.	.	8r	.	.	8r	.	.	8r	.	8r	.	8r	.	8r	.	8r	.	8r	.	16cc\
.	.	.	.	.	.	.	.	.	.	.	.	.	.	.	.	.	.	.	.	.	16dd\JJ
!	!	!	!	!	!	!	!	!	!	!	!	!	!	!	!	!	!	!	!LO:LB:g=original	!	!
=9	=9	=9	=9	=9	=9	=9	=9	=9	=9	=9	=9	=9	=9	=9	=9	=9	=9	=9	=9	=9	=9
*	*	*	*	*	*	*	*	*	*	*	*	*	*	*	*	*	*	*	*tremolo	*	*
!	!	!	!	!	!	!	!	!	!	!	!	!	!	!	!LO:TX:a:t=P:problem:mixed beam	!	!	!	!	!	!
8.G\	Be-	.	8.B-\	Be-	.	8.e-\	Be-	.	8E-\	.	16r	.	16r	.	16EE-/LL	.	16r	.	(16g\LL	.	8.ee-\L
.	.	.	.	.	.	.	.	.	.	.	16G/LL	.	16e-\LL	.	16E-\	.	16B-\LL	.	16b-\	.	.
.	.	.	.	.	.	.	.	.	8r	.	16G/	.	16e-\	.	16E-\	.	16B-\	.	16g\	.	.
16G\	-ne-	.	16B-\	-ne-	.	16e-\	-ne-	.	.	.	16G/JJ	.	16e-\JJ	.	16E-\JJ	.	16B-\JJ	.	16b-\	.	16ee-\Jk
8G\	-di-	.	8B-\	-di-	.	(16d\LL	-di-	.	4r	.	16G/LL	.	16e-\LL	.	16E-\LL	.	16B-\LL	.	16g\	.	16dd\LL
.	.	.	.	.	.	16e-\JJ)	.	.	.	.	16G/	.	16e-\	.	16E-\	.	16B-\	.	16b-\	.	16ee-\
8G\	-ctus	.	16B-\	-ctus	.	16f\	-ctus	.	.	.	16G/	.	16e-\	.	16E-\	.	16B-\	.	16g\	.	16ff\
.	.	.	16B-\	qui	.	16e-\	qui	.	.	.	16G/JJ	.	16e-\JJ	.	16E-\JJ	.	16B-\JJ	.	16b-\)JJ	.	16ee-\JJ
!LO:LB:g=original	!	!	!	!	!	!LO:LB:g=original	!	!	!	!	!	!	!	!	!	!	!	!	!	!	!
=10	=10	=10	=10	=10	=10	=10	=10	=10	=10	=10	=10	=10	=10	=10	=10	=10	=10	=10	=10	=10	=10
!	!	!	!	!	!	!	!	!	!	!	!	!	!	!	!LO:TX:a:t=P:problem:mixed beam	!	!	!	!	!	!
8r	.	.	(16B-\LL	ve-	.	(16d\LL	ve-	.	8AA-/	.	16r	.	16r	.	16AA-/LL	.	16r	.	(16a-\LL	.	(16dd\LL
.	.	.	16A-\JJ)	.	.	16c\JJ)	.	.	.	.	16E-/LL	.	16e-\LL	.	16A-\	.	16c\LL	.	16cc\	.	16cc\J)
8AA-/	qui	.	8A-\	-nit	.	8c\	-nit	.	8r	.	16E-/	.	16e-\	.	16A-\	.	16c\	.	16a-\	.	8cc'\J
.	.	.	.	.	.	.	.	.	.	.	16E-/JJ	.	16e-\JJ	.	16A-\JJ	.	16c\JJ	.	16cc\	.	.
8AA-/	ve-	.	8r	.	.	8r	.	.	4r	.	16E-/LL	.	16e-\LL	.	16A-\LL	.	16c\LL	.	16a-\	.	8r
.	.	.	.	.	.	.	.	.	.	.	16E-/	.	16e-\	.	16A-\	.	16c\	.	16cc\	.	.
8AA-/	-nit	.	8A-\	qui	.	8c\	qui	.	.	.	16E-/	.	16e-\	.	16A-\	.	16c\	.	16a-\	.	8cc\
.	.	.	.	.	.	.	.	.	.	.	16E-/JJ	.	16e-\JJ	.	16A-\JJ	.	16c\JJ	.	16cc\)JJ	.	.
*	*	*	*	*	*	*	*	*	*	*	*	*	*	*	*	*	*	*	*Xtremolo	*	*
!	!	!	!LO:LB:g=original	!	!	!	!	!	!	!	!LO:LB:g=original	!	!	!	!	!	!LO:LB:g=original	!	!	!	!
=11	=11	=11	=11	=11	=11	=11	=11	=11	=11	=11	=11	=11	=11	=11	=11	=11	=11	=11	=11	=11	=11
!	!	!	!	!	!	!	!	!	!	!	!	!	!	!	!LO:TX:a:t=P:problem:mixed beam	!	!	!	!	!	!
4BB-/	qui	.	8G/	ve-	.	8B-\	ve-	.	8BB-/	.	16r	.	16r	.	16BB-/LL	.	16r	.	16g\LL	.	8b-\L
.	.	.	.	.	.	.	.	.	.	.	16G/LL	.	16e-\LL	.	16B-\	.	16B-\LL	.	16b-\	.	.
.	.	.	16E-/	-nit	.	16e-\	-nit	.	8r	.	16G/	.	16e-\	.	16B-\	.	16B-\	.	16g\	.	16ee-\L
.	.	.	16E-/	qui	.	16G\	qui	.	.	.	16G/JJ	.	16e-\JJ	.	16B-\JJ	.	16B-\JJ	.	16b-\JJ	.	16gg\JJ
!	!	!	!	!	!	!	!	!	!	!	!	!	!	!	!LO:TX:a:t=P:problem:mixed beam	!	!	!	!	!	!
(8BB-/	ve-	.	4D/	ve-	.	(16B-\LL	ve-	.	8BB-/	.	16r	.	16r	.	16BB-/LL	.	16r	.	16a-\LL	.	16bb-\LL
.	.	.	.	.	.	16A-\JJ	.	.	.	.	16B-/LL	.	16f\LL	.	16B-\	.	16d\LL	.	16b-\	.	16aa-\
8BB-\) 8A-	.	.	.	.	.	16F/LL	.	.	8r	.	16B-/	.	16f\	.	16B-\	.	16d\	.	16a-\	.	16ff\
.	.	.	.	.	.	16G/JJ)	.	.	.	.	16B-/JJ	.	16f\JJ	.	16B-\JJ	.	16d\JJ	.	16b-\JJ	.	16gg\JJ
!	!	!	!	!	!	!	!	!	!	!	!	!	!LO:LB:g=original	!	!LO:LB:g=original	!	!	!	!	!	!LO:LB:g=original
=12	=12	=12	=12	=12	=12	=12	=12	=12	=12	=12	=12	=12	=12	=12	=12	=12	=12	=12	=12	=12	=12
!	!	!	!	!	!	!	!	!	!	!	!	!LO:DY:b:t=p.	!	!LO:DY:b	!	!	!	!	!	!	!
8E-\ 8G	-nit	.	8E-/	-nit	.	8E-/	-nit	.	8E-\L	.	(2G/	p	(2e-\	p	8E-\L	.	8e-\	.	32E-/LLL	.	8.ee-\L
.	.	.	.	.	.	.	.	.	.	.	.	.	.	.	.	.	.	.	32B-/	.	.
.	.	.	.	.	.	.	.	.	.	.	.	.	.	.	.	.	.	.	32G/	.	.
.	.	.	.	.	.	.	.	.	.	.	.	.	.	.	.	.	.	.	32B-/JJJ	.	.
*	*	*	*	*	*	*	*	*	*	*	*	*	*	*	*	*	*	*	*rep	*	*
8r	.	.	8r	.	.	8r	.	.	8BB-\	.	.	.	.	.	8BB-\	.	8r	.	32E-/LLL	.	.
.	.	.	.	.	.	.	.	.	.	.	.	.	.	.	.	.	.	.	32B-/	.	.
.	.	.	.	.	.	.	.	.	.	.	.	.	.	.	.	.	.	.	32G/	.	32g\LL
.	.	.	.	.	.	.	.	.	.	.	.	.	.	.	.	.	.	.	32B-/JJJ	.	32b-\JJJ
4r	.	.	4r	.	.	4r	.	.	8G\	.	.	.	.	.	8G\	.	4r	.	32E-/LLL	.	8ee-\L
.	.	.	.	.	.	.	.	.	.	.	.	.	.	.	.	.	.	.	32B-/	.	.
.	.	.	.	.	.	.	.	.	.	.	.	.	.	.	.	.	.	.	32G/	.	.
.	.	.	.	.	.	.	.	.	.	.	.	.	.	.	.	.	.	.	32B-/JJJ	.	.
.	.	.	.	.	.	.	.	.	8E-\J	.	.	.	.	.	8E-\J	.	.	.	32E-/LLL	.	8gg\J
.	.	.	.	.	.	.	.	.	.	.	.	.	.	.	.	.	.	.	32B-/	.	.
.	.	.	.	.	.	.	.	.	.	.	.	.	.	.	.	.	.	.	32G/	.	.
.	.	.	.	.	.	.	.	.	.	.	.	.	.	.	.	.	.	.	32B-/JJJ	.	.
*	*	*	*	*	*	*	*	*	*	*	*	*	*	*	*	*	*	*	*Xrep	*	*
=13	=13	=13	=13	=13	=13	=13	=13	=13	=13	=13	=13	=13	=13	=13	=13	=13	=13	=13	=13	=13	=13
!	!	!LO:DY:b	!	!	!LO:DY:b	!	!	!LO:DY:b:t=p.	!	!	!	!	!	!	!	!	!	!	!	!	!
8.BB-\ 8.F	Be-	p	8.A-\	Be-	p	8.d\	Be-	p	8BB-/	.	(2B-/)	.	(2f\)	.	8BB-/	.	4r	.	32F/LLL	.	8.bb-\L
.	.	.	.	.	.	.	.	.	.	.	.	.	.	.	.	.	.	.	32B-/	.	.
.	.	.	.	.	.	.	.	.	.	.	.	.	.	.	.	.	.	.	32F/	.	.
.	.	.	.	.	.	.	.	.	.	.	.	.	.	.	.	.	.	.	32B-/JJJ	.	.
*	*	*	*	*	*	*	*	*	*	*	*	*	*	*	*	*	*	*	*rep	*	*Xtuplet
.	.	.	.	.	.	.	.	.	8r	.	.	.	.	.	8r	.	.	.	32F/LLL	.	.
.	.	.	.	.	.	.	.	.	.	.	.	.	.	.	.	.	.	.	32B-/	.	.
!	!	!	!	!	!	!	!	!	!	!	!	!	!	!	!	!	!	!	!	!	!LO:TX:a:t=P:problem:triola bez numeru i łuku
16BB-\ 16F	-ne-	.	16A-\	-ne-	.	16d\	-ne-	.	.	.	.	.	.	.	.	.	.	.	32F/	.	48aa-\LL
.	.	.	.	.	.	.	.	.	.	.	.	.	.	.	.	.	.	.	.	.	48ff\
.	.	.	.	.	.	.	.	.	.	.	.	.	.	.	.	.	.	.	32B-/JJJ	.	.
.	.	.	.	.	.	.	.	.	.	.	.	.	.	.	.	.	.	.	.	.	48dd\JJJ
8BB-\ 8F	-di-	.	8A-\	-di-	.	8d\	-di-	.	8BB-/	.	.	.	.	.	8BB-/	.	16r	.	32F/LLL	.	16b-\LL
.	.	.	.	.	.	.	.	.	.	.	.	.	.	.	.	.	.	.	32B-/	.	.
.	.	.	.	.	.	.	.	.	.	.	.	.	.	.	.	.	16c\LL	.	32F/	.	16aa-\
.	.	.	.	.	.	.	.	.	.	.	.	.	.	.	.	.	.	.	32B-/JJJ	.	.
16BB-\ 16F	-ctus	.	16A-\	-ctus	.	16d\	-ctus	.	8r	.	.	.	.	.	8r	.	16B-\	.	32F/LLL	.	16gg\
.	.	.	.	.	.	.	.	.	.	.	.	.	.	.	.	.	.	.	32B-/	.	.
16BB-\ 16F	qui	.	16A-\	qui	.	16d\	qui	.	.	.	.	.	.	.	.	.	16A-\JJ	.	32F/	.	16ff\JJ
.	.	.	.	.	.	.	.	.	.	.	.	.	.	.	.	.	.	.	32B-/JJJ	.	.
*	*	*	*	*	*	*	*	*	*	*	*	*	*	*	*	*	*	*	*Xrep	*	*
!LO:LB:g=original	!	!	!	!	!	!LO:LB:g=original	!	!	!	!	!	!	!	!	!	!	!	!	!LO:LB:g=original	!	!
=14	=14	=14	=14	=14	=14	=14	=14	=14	=14	=14	=14	=14	=14	=14	=14	=14	=14	=14	=14	=14	=14
8E-\	ve-	.	8G/	ve-	.	8e-\	ve-	.	8E-\	.	(2G/)	.	(2e-\)	.	8E-\	.	16B-\LL	.	32E-/LLL	.	(16gg\LL
.	.	.	.	.	.	.	.	.	.	.	.	.	.	.	.	.	.	.	32B-/	.	.
.	.	.	.	.	.	.	.	.	.	.	.	.	.	.	.	.	16A-\J	.	32G/	.	16ff\J)
.	.	.	.	.	.	.	.	.	.	.	.	.	.	.	.	.	.	.	32B-/JJJ	.	.
*	*	*	*	*	*	*	*	*	*	*	*	*	*	*	*	*	*	*	*rep	*	*
8E-\	-nit	.	8G/	-nit	.	8e-\	-nit	.	8r	.	.	.	.	.	8r	.	8G\J	.	32E-/LLL	.	8ee-\J
.	.	.	.	.	.	.	.	.	.	.	.	.	.	.	.	.	.	.	32B-/	.	.
.	.	.	.	.	.	.	.	.	.	.	.	.	.	.	.	.	.	.	32G/	.	.
.	.	.	.	.	.	.	.	.	.	.	.	.	.	.	.	.	.	.	32B-/JJJ	.	.
4r	.	.	4r	.	.	4r	.	.	8E-\	.	.	.	.	.	8E-\	.	4r	.	32E-/LLL	.	16r
.	.	.	.	.	.	.	.	.	.	.	.	.	.	.	.	.	.	.	32B-/	.	.
!	!	!	!	!	!	!	!	!	!	!	!	!	!	!	!	!	!	!	!	!	!LO:TX:a:t=P:problem:obiegnik górny
.	.	.	.	.	.	.	.	.	.	.	.	.	.	.	.	.	.	.	32G/	.	16b-\LL
.	.	.	.	.	.	.	.	.	.	.	.	.	.	.	.	.	.	.	32B-/JJJ	.	.
.	.	.	.	.	.	.	.	.	8r	.	.	.	.	.	8r	.	.	.	32E-/LLL	.	16ee-\
.	.	.	.	.	.	.	.	.	.	.	.	.	.	.	.	.	.	.	32B-/	.	.
.	.	.	.	.	.	.	.	.	.	.	.	.	.	.	.	.	.	.	32G/	.	16gg\JJ
.	.	.	.	.	.	.	.	.	.	.	.	.	.	.	.	.	.	.	32B-/JJJ	.	.
*	*	*	*	*	*	*	*	*	*	*	*	*	*	*	*	*	*	*	*Xrep	*	*
=15	=15	=15	=15	=15	=15	=15	=15	=15	=15	=15	=15	=15	=15	=15	=15	=15	=15	=15	=15	=15	=15
8.BB-\ 8.F	Be-	.	8.A-\	Be-	.	8.d\	Be-	.	8BB-/	.	2B-/)	.	2f\)	.	8BB-/	.	4r	.	32F/LLL	.	8.bb-\L
.	.	.	.	.	.	.	.	.	.	.	.	.	.	.	.	.	.	.	32B-/	.	.
.	.	.	.	.	.	.	.	.	.	.	.	.	.	.	.	.	.	.	32F/	.	.
.	.	.	.	.	.	.	.	.	.	.	.	.	.	.	.	.	.	.	32B-/JJJ	.	.
*	*	*	*	*	*	*	*	*	*	*	*	*	*	*	*	*	*	*	*rep	*	*
.	.	.	.	.	.	.	.	.	8r	.	.	.	.	.	8r	.	.	.	32F/LLL	.	.
.	.	.	.	.	.	.	.	.	.	.	.	.	.	.	.	.	.	.	32B-/	.	.
!	!	!	!	!	!	!	!	!	!	!	!	!	!	!	!	!	!	!	!	!	!LO:TX:a:t=P:problem:triola bez numeru i łuku
16BB-\ 16F	-ne-	.	16A-\	-ne-	.	16d\	-ne-	.	.	.	.	.	.	.	.	.	.	.	32F/	.	48aa-\LL
.	.	.	.	.	.	.	.	.	.	.	.	.	.	.	.	.	.	.	.	.	48ff\
.	.	.	.	.	.	.	.	.	.	.	.	.	.	.	.	.	.	.	32B-/JJJ	.	.
.	.	.	.	.	.	.	.	.	.	.	.	.	.	.	.	.	.	.	.	.	48dd\JJJ
8BB-\ 8F	-di-	.	8A-\	-di-	.	8d\	-di-	.	8BB-/	.	.	.	.	.	8BB-/	.	16r	.	32F/LLL	.	16b-\LL
.	.	.	.	.	.	.	.	.	.	.	.	.	.	.	.	.	.	.	32B-/	.	.
.	.	.	.	.	.	.	.	.	.	.	.	.	.	.	.	.	16c\LL	.	32F/	.	16aa-\
.	.	.	.	.	.	.	.	.	.	.	.	.	.	.	.	.	.	.	32B-/JJJ	.	.
16BB-\ 16F	-ctus	.	16A-\	-ctus	.	16d\	-ctus	.	8r	.	.	.	.	.	8r	.	16B-\	.	32F/LLL	.	16gg\
.	.	.	.	.	.	.	.	.	.	.	.	.	.	.	.	.	.	.	32B-/	.	.
16BB-\ 16F	qui	.	16A-\	qui	.	16d\	qui	.	.	.	.	.	.	.	.	.	16A-\JJ	.	32F/	.	16ff\JJ
.	.	.	.	.	.	.	.	.	.	.	.	.	.	.	.	.	.	.	32B-/JJJ	.	.
*	*	*	*	*	*	*	*	*	*	*	*	*	*	*	*	*	*	*	*Xrep	*	*
!	!	!	!LO:LB:g=original	!	!	!	!	!	!LO:LB:g=original	!	!	!	!	!	!	!	!LO:LB:g=original	!	!	!	!LO:LB:g=original
=16	=16	=16	=16	=16	=16	=16	=16	=16	=16	=16	=16	=16	=16	=16	=16	=16	=16	=16	=16	=16	=16
*	*	*	*	*	*	*	*	*	*	*	*	*	*	*	*	*	*	*	*	*	*tuplet
!	!	!	!	!	!	!	!	!	!	!	!	!	!	!	!	!	!	!	!	!	!LO:TX:a:t=P:problem:klamra łukowa z numerem
8E-\	ve-	.	8G/	ve-	.	8e-\	ve-	.	8E-\L	.	8G/L	.	8e-\L	.	8E-\L	.	16B-\LL	.	32E-/LLL	.	24gg\LL
.	.	.	.	.	.	.	.	.	.	.	.	.	.	.	.	.	.	.	32B-/	.	.
.	.	.	.	.	.	.	.	.	.	.	.	.	.	.	.	.	.	.	.	.	24ff\
.	.	.	.	.	.	.	.	.	.	.	.	.	.	.	.	.	16A-\	.	32G/	.	.
.	.	.	.	.	.	.	.	.	.	.	.	.	.	.	.	.	.	.	.	.	24ee-\J
.	.	.	.	.	.	.	.	.	.	.	.	.	.	.	.	.	.	.	32B-/JJJ	.	.
8E-\	-nit	.	8G/	-nit	.	8e-\	-nit	.	8E-\	.	8G/	.	8e-\	.	8E-\	.	16G\J	.	32E-/LLL	.	8ee-\J
.	.	.	.	.	.	.	.	.	.	.	.	.	.	.	.	.	.	.	32B-/	.	.
.	.	.	.	.	.	.	.	.	.	.	.	.	.	.	.	.	8G\J	.	32G/	.	.
.	.	.	.	.	.	.	.	.	.	.	.	.	.	.	.	.	.	.	32B-/JJJ	.	.
4r	.	.	4r	.	.	4r	.	.	8E-\J	.	8G/J	.	8e-\J	.	8E-\J	.	.	.	8G/	.	16r
.	.	.	.	.	.	.	.	.	.	.	.	.	.	.	.	.	8G\	.	.	.	16b-\LL
.	.	.	.	.	.	.	.	.	8r	.	8r	.	8r	.	8r	.	.	.	8r	.	16cc\
.	.	.	.	.	.	.	.	.	.	.	.	.	.	.	.	.	16r	.	.	.	16dd\JJ
!	!	!	!	!	!	!	!	!	!	!	!LO:LB:g=original	!	!	!	!	!	!	!	!	!	!
=17	=17	=17	=17	=17	=17	=17	=17	=17	=17	=17	=17	=17	=17	=17	=17	=17	=17	=17	=17	=17	=17
*	*	*	*	*	*	*	*	*	*	*	*	*	*	*	*	*	*	*	*tremolo	*	*
!	!	!	!	!	!	!	!	!	!	!	!	!	!	!	!LO:TX:a:t=P:problem:mixed beam	!	!	!	!	!	!
8.E-\	Be-	.	8.G/	Be-	.	8.e-\	Be-	.	8E-\	.	16r	.	16r	.	16EE-/LL	.	16r	.	(16g\LL	.	8.ee-\L
.	.	.	.	.	.	.	.	.	.	.	16G/LL	.	16e-\LL	.	16E-\	.	16B-\LL	.	16b-\	.	.
.	.	.	.	.	.	.	.	.	8r	.	16G/	.	16e-\	.	16E-\	.	16B-\	.	16g\	.	.
16E-\	-ne-	.	16G/	-ne-	.	16e-\	-ne-	.	.	.	16G/JJ	.	16e-\JJ	.	16E-\JJ	.	16B-\JJ	.	16b-\	.	16ee-\Jk
8E-\	-di-	.	8G/	-di-	.	(16g\LL	-di-	.	4r	.	16G/LL	.	16e-\LL	.	16E-\LL	.	16B-\LL	.	16g\	.	16gg\LL
.	.	.	.	.	.	16f\JJ)	.	.	.	.	16G/	.	16e-\	.	16E-\	.	16B-\	.	16b-\	.	16ff\
16E-\	-ctus	.	16G/	-ctus	.	16e-\	-ctus	.	.	.	16G/	.	16e-\	.	16E-\	.	16B-\	.	16g\	.	16ee-\
16E-\	qui	.	16G/	qui	.	16d\	qui	.	.	.	16G/JJ	.	16e-\JJ	.	16E-\JJ	.	16B-\JJ	.	16b-\)JJ	.	16dd\JJ
*	*	*	*	*	*	*	*	*	*	*	*	*	*	*	*	*	*	*	*Xtremolo	*	*
!LO:LB:g=original	!	!	!	!	!	!LO:LB:g=original	!	!	!	!	!	!	!	!	!LO:LB:g=original	!	!	!	!	!	!
=18	=18	=18	=18	=18	=18	=18	=18	=18	=18	=18	=18	=18	=18	=18	=18	=18	=18	=18	=18	=18	=18
!	!	!	!	!	!	!	!	!	!	!	!	!	!	!	!LO:TX:a:t=P:problem:mixed beam	!	!	!	!	!	!
8AA-/	ve-	.	(16G/LL	ve-	.	(16Bn\LL	ve-	.	8AA-/	.	16r	.	16r	.	16AA-/LL	.	16r	.	(16g\LL	.	(16bX\LL
.	.	.	16A-/JJ)	.	.	16c\JJ)	.	.	.	.	16E-/LL	.	16e-\LL	.	16A-\	.	16c\LL	.	16a-\J)	.	16cc\J)
8AA-/	-nit	.	8A-/	-nit	.	8c\	-nit	.	8r	.	16E-/	.	16e-\	.	16A-\	.	16c\	.	8a-'\J	.	8cc'\J
.	.	.	.	.	.	.	.	.	.	.	16E-/JJ	.	16e-\JJ	.	16A-\JJ	.	16c\JJ	.	.	.	.
8r	.	.	16r	.	.	16r	.	.	4r	.	16E-/LL	.	16e-\LL	.	16A-\LL	.	16c\LL	.	16r	.	16r
.	.	.	(16c\LL	in	.	(16e-\LL	in	.	.	.	16E-/	.	16e-\	.	16A-\	.	16c\	.	16cc\LL	.	16ee-\LL
8AA-/	in	.	16B-\	.	.	16d\	.	.	.	.	16E-/	.	16e-\	.	16A-\	.	16c\	.	16b-\	.	16dd\
.	.	.	16A-\JJ)	.	.	16c\JJ)	.	.	.	.	16E-/JJ	.	16e-\JJ	.	16A-\JJ	.	16c\JJ	.	16a-\JJ	.	16cc\JJ
!	!	!	!	!	!	!	!	!	!	!	!	!	!	!	!	!	!	!	!LO:LB:g=original	!	!
=19	=19	=19	=19	=19	=19	=19	=19	=19	=19	=19	=19	=19	=19	=19	=19	=19	=19	=19	=19	=19	=19
!	!	!	!	!	!	!	!	!	!	!	!	!	!	!	!LO:TX:a:t=P:problem:mixed beam	!	!	!	!	!	!
8BB-/	no-	.	8G/	no-	.	8B-\	no-	.	8BB-/	.	16r	.	16r	.	16BB-/LL	.	16r	.	8g\L	.	8b-\L
.	.	.	.	.	.	.	.	.	.	.	16G/LL	.	16e-\LL	.	16B-\	.	16B-\LL	.	.	.	.
8BB-/	-mi-	.	16.A-/LL	-mi-	.	(16.c\LL	-mi-	.	8r	.	16G/	.	16e-\	.	16B-\	.	16B-\	.	16.a-\L	.	16.cc\L
.	.	.	.	.	.	.	.	.	.	.	16G/JJ	.	16e-\JJ	.	16B-\JJ	.	16B-\JJ	.	.	.	.
.	.	.	32G/JJk	.	.	32B-\JJk)	.	.	.	.	.	.	.	.	.	.	.	.	32g\JJk	.	32b-\JJk
!	!	!	!	!	!	!	!	!	!	!	!	!	!	!	!LO:TX:a:t=P:problem:mixed beam	!	!	!	!	!	!
8BB-/	-ne	.	8F/	-ne	.	8F\	-ne	.	8BB-/	.	16r	.	16r	.	16BB-/LL	.	16r	.	8f\L	.	8bb-\L
.	.	.	.	.	.	.	.	.	.	.	16B-/LL	.	16f\LL	.	16B-\	.	16A-\LL	.	.	.	.
8BB-/	do-	.	8D/	Do-	.	8B-\	Do-	.	8r	.	16B-/	.	16f\	.	16B-\	.	16A-\	.	8b-\J	.	16.aa-\L
.	.	.	.	.	.	.	.	.	.	.	16B-/JJ	.	16f\JJ	.	16B-\JJ	.	16A-\JJ	.	.	.	.
.	.	.	.	.	.	.	.	.	.	.	.	.	.	.	.	.	.	.	.	.	32ff\JJk
!	!	!	!	!	!	!	!	!	!	!	!LO:LB:g=original	!	!LO:LB:g=original	!	!	!	!LO:LB:g=original	!	!	!	!LO:LB:g=original
=20	=20	=20	=20	=20	=20	=20	=20	=20	=20	=20	=20	=20	=20	=20	=20	=20	=20	=20	=20	=20	=20
!	!	!	!	!	!	!	!	!	!	!	!	!	!	!	!LO:TX:a:t=P:problem:mixed beam	!	!	!	!	!	!
4BB-/	-mi-	.	(8.F/L	-mi-	.	(8.A-\L	-mi-	.	4BB-\	.	16r	.	16r	.	16BB-\LL	.	16r	.	8.ff\L	.	8.aa-\L
.	.	.	.	.	.	.	.	.	.	.	16B-/LL	.	16f\LL	.	16B-\	.	16B-\LL	.	.	.	.
.	.	.	.	.	.	.	.	.	.	.	16B-/	.	16f\	.	16B-\	.	16d\	.	.	.	.
.	.	.	32G/LL	.	.	32B-\LL	.	.	.	.	16B-/JJ	.	16f\JJ	.	16B-\JJ	.	16d\JJ	.	32gg\LL	.	32bb-\LL
.	.	.	32F/JJJ)	.	.	32A-\JJJ)	.	.	.	.	.	.	.	.	.	.	.	.	32ff\JJJ	.	32aa-\JJJ
8E-\	-ni	.	8E-/	-ni	.	8G\	-ni	.	8E-\	.	8G/	.	8e-\	.	8E-\	.	8e-\	.	8ee-\	.	16gg\LL
.	.	.	.	.	.	.	.	.	.	.	.	.	.	.	.	.	.	.	.	.	16b-\
8r	.	.	8r	.	.	8r	.	.	8r	.	8r	.	8r	.	8r	.	8r	.	8r	.	16cc\
.	.	.	.	.	.	.	.	.	.	.	.	.	.	.	.	.	.	.	.	.	16dd\JJ
!	!	!	!LO:LB:g=original	!	!	!LO:LB:g=original	!	!	!	!	!	!	!	!	!	!	!	!	!	!	!
=21	=21	=21	=21	=21	=21	=21	=21	=21	=21	=21	=21	=21	=21	=21	=21	=21	=21	=21	=21	=21	=21
*	*	*	*	*	*	*	*	*	*	*	*	*	*	*	*	*	*	*	*tremolo	*	*
!	!	!	!	!	!	!	!	!	!	!	!	!	!	!	!LO:TX:a:t=P:problem:mixed beam	!	!	!	!	!	!
8.E-\	Be-	.	8.G/	Be-	.	8.e-\	Be-	.	8E-\	.	16r	.	16r	.	16EE-/LL	.	16r	.	(16g\LL	.	8.ee-\L
.	.	.	.	.	.	.	.	.	.	.	16G/LL	.	16e-\LL	.	16E-\	.	16B-\LL	.	16b-\	.	.
.	.	.	.	.	.	.	.	.	8r	.	16G/	.	16e-\	.	16E-\	.	16B-\	.	16g\	.	.
16E-\	-ne-	.	16G/	-ne-	.	16e-\	-ne-	.	.	.	16G/JJ	.	16e-\JJ	.	16E-\JJ	.	16B-\JJ	.	16b-\	.	16ee-\Jk
8E-\	-di-	.	8G/	-di-	.	(16g\LL	-di-	.	4r	.	16G/LL	.	16e-\LL	.	16E-\LL	.	16B-\LL	.	16g\	.	16gg\LL
.	.	.	.	.	.	16f\JJ)	.	.	.	.	16G/	.	16e-\	.	16E-\	.	16B-\	.	16b-\	.	16ff\
16E-\	-ctus	.	16G/	-ctus	.	16e-\	-ctus	.	.	.	16G/	.	16e-\	.	16E-\	.	16B-\	.	16g\	.	16ee-\
16E-\	qui	.	16G/	qui	.	16d\	qui	.	.	.	16G/JJ	.	16e-\JJ	.	16E-\JJ	.	16B-\JJ	.	16b-\)JJ	.	16dd\JJ
*	*	*	*	*	*	*	*	*	*	*	*	*	*	*	*	*	*	*	*Xtremolo	*	*
*	*	*	*	*	*	*	*	*	*	*	*	*	*	*	*	*	*	*	*Xtremolo	*	*
!LO:LB:g=original	!	!	!	!	!	!	!	!	!	!	!	!	!	!	!	!	!	!	!	!	!
=22	=22	=22	=22	=22	=22	=22	=22	=22	=22	=22	=22	=22	=22	=22	=22	=22	=22	=22	=22	=22	=22
!	!	!	!	!	!	!	!	!	!	!	!	!	!	!	!LO:TX:a:t=P:problem:mixed beam	!	!	!	!	!	!
8AA-/	ve-	.	16G/LL	ve-	.	(16Bn\LL	ve-	.	8AA-/	.	16r	.	16r	.	16AA-/LL	.	16r	.	(16g\LL	.	16bX\LL
.	.	.	16A-/JJ	.	.	16c\JJ)	.	.	.	.	16E-/LL	.	16e-\LL	.	16A-\	.	16c\LL	.	16a-\J)	.	16cc\J
8AA-/	-nit	.	8A-/	-nit	.	8c\	-nit	.	8r	.	16E-/	.	16e-\	.	16A-\	.	16c\	.	8a-'\J	.	8cc'\J
.	.	.	.	.	.	.	.	.	.	.	16E-/JJ	.	16e-\JJ	.	16A-\JJ	.	16c\	.	.	.	.
8r	.	.	16r	.	.	16r	.	.	4r	.	16E-/LL	.	16e-\LL	.	16A-\LL	.	16c\	.	16r	.	16r
.	.	.	(16c\LL	in	.	(16e-\LL	in	.	.	.	16E-/	.	16e-\	.	16A-\	.	16c\	.	16cc\LL	.	16ee-\LL
8AA-/	in	.	16B-\	.	.	16d\	.	.	.	.	16E-/	.	16e-\	.	16A-\	.	16c\	.	16b-\	.	16dd\
.	.	.	16A-\JJ)	.	.	16c\JJ)	.	.	.	.	16E-/JJ	.	16e-\JJ	.	16A-\JJ	.	16c\JJ	.	16a-\JJ	.	16cc\JJ
!	!	!	!	!	!	!	!	!	!	!	!	!	!	!	!LO:LB:g=original	!	!	!	!	!	!
=23	=23	=23	=23	=23	=23	=23	=23	=23	=23	=23	=23	=23	=23	=23	=23	=23	=23	=23	=23	=23	=23
*	*	*	*	*	*	*	*	*	*	*	*	*	*	*	*	*	*	*	*	*	*Xtuplet
!	!	!	!	!	!	!	!	!	!	!	!	!	!	!	!LO:TX:a:t=P:problem:mixed beam	!	!	!	!	!	!LO:TX:a:t=P:problem:triole w t.23 bez numeru i łuku
8BB-/	no-	.	8G/	no-	.	8B-\	no-	.	8BB-/	.	16r	.	16r	.	16BB-/LL	.	16r	.	16g\LL	.	24b-\LL
.	.	.	.	.	.	.	.	.	.	.	.	.	.	.	.	.	.	.	.	.	24bb-\
.	.	.	.	.	.	.	.	.	.	.	16G/LL	.	16e-\LL	.	16B-\	.	16B-\LL	.	16b-\	.	.
.	.	.	.	.	.	.	.	.	.	.	.	.	.	.	.	.	.	.	.	.	24aa-\JJ
16BB-/	-mi-	.	16A-/	-mi-	.	16c\	-mi-	.	8r	.	16G/	.	16e-\	.	16B-\	.	16B-\	.	16g\	.	24gg\LL
.	.	.	.	.	.	.	.	.	.	.	.	.	.	.	.	.	.	.	.	.	24ff\
16BB-/	-ne	.	16G/	-ne	.	16B-\	-ne	.	.	.	16G/JJ	.	16e-\JJ	.	16B-\JJ	.	16B-\JJ	.	16b-\JJ	.	.
.	.	.	.	.	.	.	.	.	.	.	.	.	.	.	.	.	.	.	.	.	24ee-\JJ
!	!	!	!	!	!	!LO:TX:a:t=P:problem:obiegnik górny	!	!	!	!	!	!	!	!	!LO:TX:a:t=P:problem:mixed beam	!	!	!	!	!	!
8BB-/	do-	.	8F/	Do-	.	8F/	Do-	.	8BB-/	.	16r	.	16r	.	16BB-/LL	.	16r	.	16f\LL	.	24dd\LL
.	.	.	.	.	.	.	.	.	.	.	.	.	.	.	.	.	.	.	.	.	24cc\
.	.	.	.	.	.	.	.	.	.	.	16B-/LL	.	16f\LL	.	16B-\	.	16A-\LL	.	16b-\	.	.
.	.	.	.	.	.	.	.	.	.	.	.	.	.	.	.	.	.	.	.	.	24b-\JJ
8BB-/	-mi-	.	8D/	-mi-	.	(16.A-\LL	-mi-	.	8r	.	16B-/	.	16f\	.	16B-\	.	16A-\	.	16f\	.	24a-\LL
.	.	.	.	.	.	.	.	.	.	.	.	.	.	.	.	.	.	.	.	.	24g\
.	.	.	.	.	.	.	.	.	.	.	16B-/JJ	.	16f\JJ	.	16B-\JJ	.	16A-\JJ	.	16b-\JJ	.	.
.	.	.	.	.	.	.	.	.	.	.	.	.	.	.	.	.	.	.	.	.	24f\JJ
.	.	.	.	.	.	32G\JJk)	.	.	.	.	.	.	.	.	.	.	.	.	.	.	.
!	!	!	!	!	!	!LO:LB:g=original	!	!	!	!	!LO:LB:g=original	!	!	!	!	!	!LO:LB:g=original	!	!LO:LB:g=original	!	!LO:LB:g=original
=24	=24	=24	=24	=24	=24	=24	=24	=24	=24	=24	=24	=24	=24	=24	=24	=24	=24	=24	=24	=24	=24
4E-\	-ni	.	4E-/	-ni	.	4E-/	-ni	.	8E-'\L	.	(2G/	.	(2e-\	.	8E-\L	.	4G\	.	32E-/LLL	.	4e-/
.	.	.	.	.	.	.	.	.	.	.	.	.	.	.	.	.	.	.	32B-/	.	.
.	.	.	.	.	.	.	.	.	.	.	.	.	.	.	.	.	.	.	32G/	.	.
.	.	.	.	.	.	.	.	.	.	.	.	.	.	.	.	.	.	.	32B-/JJJ	.	.
*	*	*	*	*	*	*	*	*	*	*	*	*	*	*	*	*	*	*	*rep	*	*
.	.	.	.	.	.	.	.	.	8BB-'\	.	.	.	.	.	8BB-\J	.	.	.	32E-/LLL	.	.
.	.	.	.	.	.	.	.	.	.	.	.	.	.	.	.	.	.	.	32B-/	.	.
.	.	.	.	.	.	.	.	.	.	.	.	.	.	.	.	.	.	.	32G/	.	.
.	.	.	.	.	.	.	.	.	.	.	.	.	.	.	.	.	.	.	32B-/JJJ	.	.
4r	.	.	4r	.	.	4r	.	.	8G'\	.	.	.	.	.	8GG/L	.	16r	.	32E-/LLL	.	16r
.	.	.	.	.	.	.	.	.	.	.	.	.	.	.	.	.	.	.	32B-/	.	.
.	.	.	.	.	.	.	.	.	.	.	.	.	.	.	.	.	16G\LL	.	32G/	.	16b-\LL
.	.	.	.	.	.	.	.	.	.	.	.	.	.	.	.	.	.	.	32B-/JJJ	.	.
.	.	.	.	.	.	.	.	.	8E-'\J	.	.	.	.	.	8EE-/J	.	16B-\	.	32E-/LLL	.	16ee-\
.	.	.	.	.	.	.	.	.	.	.	.	.	.	.	.	.	.	.	32B-/	.	.
.	.	.	.	.	.	.	.	.	.	.	.	.	.	.	.	.	16e-\JJ	.	32G/	.	16gg\JJ
.	.	.	.	.	.	.	.	.	.	.	.	.	.	.	.	.	.	.	32B-/JJJ	.	.
*	*	*	*	*	*	*	*	*	*	*	*	*	*	*	*	*	*	*	*Xrep	*	*
!	!	!	!	!	!	!	!	!	!LO:PB:g=original	!	!	!	!	!	!	!	!	!	!	!	!
=25	=25	=25	=25	=25	=25	=25	=25	=25	=25	=25	=25	=25	=25	=25	=25	=25	=25	=25	=25	=25	=25
!LO:TX:a:t=8.	!	!	!LO:TX:a:t=8	!	!	!LO:TX:a:t=5.	!	!	!	!	!	!	!	!	!	!	!	!	!	!	!
!LO:N:vis=00	!	!	!LO:N:vis=00	!	!	!LO:N:vis=00	!	!	!	!	!	!	!	!	!	!	!	!	!	!	!
0r	.	.	0r	.	.	0r	.	.	8BB-/	.	2B-/)	.	2f\)	.	8BB-/	.	16.f\LL	.	32F/LLL	.	16.aa-\LL
.	.	.	.	.	.	.	.	.	.	.	.	.	.	.	.	.	.	.	32B-/	.	.
.	.	.	.	.	.	.	.	.	.	.	.	.	.	.	.	.	.	.	32F/	.	.
.	.	.	.	.	.	.	.	.	.	.	.	.	.	.	.	.	32e-\JK	.	32B-/JJJ	.	32gg\JK
*	*	*	*	*	*	*	*	*	*	*	*	*	*	*	*	*	*	*	*rep	*	*
.	.	.	.	.	.	.	.	.	8r	.	.	.	.	.	8r	.	8d\J	.	32F/LLL	.	8ff\J
.	.	.	.	.	.	.	.	.	.	.	.	.	.	.	.	.	.	.	32B-/	.	.
.	.	.	.	.	.	.	.	.	.	.	.	.	.	.	.	.	.	.	32F/	.	.
.	.	.	.	.	.	.	.	.	.	.	.	.	.	.	.	.	.	.	32B-/JJJ	.	.
.	.	.	.	.	.	.	.	.	8BB-/	.	.	.	.	.	8BB-/	.	16r	.	32F/LLL	.	16r
.	.	.	.	.	.	.	.	.	.	.	.	.	.	.	.	.	.	.	32B-/	.	.
!	!	!	!	!	!	!	!	!	!	!	!	!	!	!	!	!	!	!	!	!	!LO:TX:a:t=P:problem:obiegnik górny
.	.	.	.	.	.	.	.	.	.	.	.	.	.	.	.	.	16D\LL	.	32F/	.	16b-\LL
.	.	.	.	.	.	.	.	.	.	.	.	.	.	.	.	.	.	.	32B-/JJJ	.	.
.	.	.	.	.	.	.	.	.	8r	.	.	.	.	.	8r	.	16F\	.	32F/LLL	.	16dd\
.	.	.	.	.	.	.	.	.	.	.	.	.	.	.	.	.	.	.	32B-/	.	.
.	.	.	.	.	.	.	.	.	.	.	.	.	.	.	.	.	16A-\JJ	.	32F/	.	16ff\JJ
.	.	.	.	.	.	.	.	.	.	.	.	.	.	.	.	.	.	.	32B-/JJJ	.	.
*	*	*	*	*	*	*	*	*	*	*	*	*	*	*	*	*	*	*	*Xrep	*	*
=26	=26	=26	=26	=26	=26	=26	=26	=26	=26	=26	=26	=26	=26	=26	=26	=26	=26	=26	=26	=26	=26
.	.	.	.	.	.	.	.	.	8E-\	.	2G/	.	2e-\	.	8E-\	.	16.B-\LL	.	32E-/LLL	.	16.gg\LL
.	.	.	.	.	.	.	.	.	.	.	.	.	.	.	.	.	.	.	32B-/	.	.
.	.	.	.	.	.	.	.	.	.	.	.	.	.	.	.	.	.	.	32G/	.	.
.	.	.	.	.	.	.	.	.	.	.	.	.	.	.	.	.	32A-\JK	.	32B-/JJJ	.	32ff\JK
*	*	*	*	*	*	*	*	*	*	*	*	*	*	*	*	*	*	*	*rep	*	*
.	.	.	.	.	.	.	.	.	8r	.	.	.	.	.	8r	.	8G\J	.	32E-/LLL	.	8ee-\J
.	.	.	.	.	.	.	.	.	.	.	.	.	.	.	.	.	.	.	32B-/	.	.
.	.	.	.	.	.	.	.	.	.	.	.	.	.	.	.	.	.	.	32G/	.	.
.	.	.	.	.	.	.	.	.	.	.	.	.	.	.	.	.	.	.	32B-/JJJ	.	.
.	.	.	.	.	.	.	.	.	8E-\	.	.	.	.	.	8E-\	.	4B-\	.	32E-/LLL	.	16r
.	.	.	.	.	.	.	.	.	.	.	.	.	.	.	.	.	.	.	32B-/	.	.
!	!	!	!	!	!	!	!	!	!	!	!	!	!	!	!	!	!	!	!	!	!LO:TX:a:t=P:problem:obiegnik górny
.	.	.	.	.	.	.	.	.	.	.	.	.	.	.	.	.	.	.	32G/	.	16b-\LL
.	.	.	.	.	.	.	.	.	.	.	.	.	.	.	.	.	.	.	32B-/JJJ	.	.
.	.	.	.	.	.	.	.	.	8r	.	.	.	.	.	8r	.	.	.	32E-/LLL	.	16ee-\
.	.	.	.	.	.	.	.	.	.	.	.	.	.	.	.	.	.	.	32B-/	.	.
.	.	.	.	.	.	.	.	.	.	.	.	.	.	.	.	.	.	.	32G/	.	16dd\JJ
.	.	.	.	.	.	.	.	.	.	.	.	.	.	.	.	.	.	.	32B-/JJJ	.	.
*	*	*	*	*	*	*	*	*	*	*	*	*	*	*	*	*	*	*	*Xrep	*	*
=27	=27	=27	=27	=27	=27	=27	=27	=27	=27	=27	=27	=27	=27	=27	=27	=27	=27	=27	=27	=27	=27
.	.	.	.	.	.	.	.	.	8AA-/	.	2E-/	.	2e-\	.	2AA-/	.	2c\	.	32E-/LLL	.	8cc\L
.	.	.	.	.	.	.	.	.	.	.	.	.	.	.	.	.	.	.	32c/	.	.
.	.	.	.	.	.	.	.	.	.	.	.	.	.	.	.	.	.	.	32A-/	.	.
.	.	.	.	.	.	.	.	.	.	.	.	.	.	.	.	.	.	.	32c/JJJ	.	.
*	*	*	*	*	*	*	*	*	*	*	*	*	*	*	*	*	*	*	*rep	*	*
.	.	.	.	.	.	.	.	.	8r	.	.	.	.	.	.	.	.	.	32E-/LLL	.	16dd\L
.	.	.	.	.	.	.	.	.	.	.	.	.	.	.	.	.	.	.	32c/	.	.
.	.	.	.	.	.	.	.	.	.	.	.	.	.	.	.	.	.	.	32A-/	.	16eeX\JJ
.	.	.	.	.	.	.	.	.	.	.	.	.	.	.	.	.	.	.	32c/JJJ	.	.
.	.	.	.	.	.	.	.	.	8AA-/	.	.	.	.	.	.	.	.	.	32E-/LLL	.	16ff\LL
.	.	.	.	.	.	.	.	.	.	.	.	.	.	.	.	.	.	.	32c/	.	.
.	.	.	.	.	.	.	.	.	.	.	.	.	.	.	.	.	.	.	32A-/	.	16gg\
.	.	.	.	.	.	.	.	.	.	.	.	.	.	.	.	.	.	.	32c/JJJ	.	.
.	.	.	.	.	.	.	.	.	8r	.	.	.	.	.	.	.	.	.	32E-/LLL	.	16aa-\
.	.	.	.	.	.	.	.	.	.	.	.	.	.	.	.	.	.	.	32c/	.	.
.	.	.	.	.	.	.	.	.	.	.	.	.	.	.	.	.	.	.	32A-/	.	16ff\JJ
.	.	.	.	.	.	.	.	.	.	.	.	.	.	.	.	.	.	.	32c/JJJ	.	.
*	*	*	*	*	*	*	*	*	*	*	*	*	*	*	*	*	*	*	*Xrep	*	*
!	!	!	!	!	!	!	!	!	!	!	!	!	!LO:LB:g=original	!	!	!	!	!	!LO:LB:g=original	!	!
=28	=28	=28	=28	=28	=28	=28	=28	=28	=28	=28	=28	=28	=28	=28	=28	=28	=28	=28	=28	=28	=28
*	*	*	*	*	*	*	*	*	*	*	*	*	*	*	*	*	*	*	*	*	*tuplet
.	.	.	.	.	.	.	.	.	8BB-/	.	4e-\	.	4g\	.	8BB-/	.	4B-\	.	32B-/LLL	.	(24gg\LL
.	.	.	.	.	.	.	.	.	.	.	.	.	.	.	.	.	.	.	32e-/	.	.
.	.	.	.	.	.	.	.	.	.	.	.	.	.	.	.	.	.	.	.	.	24bb-\)
.	.	.	.	.	.	.	.	.	.	.	.	.	.	.	.	.	.	.	32g/	.	.
.	.	.	.	.	.	.	.	.	.	.	.	.	.	.	.	.	.	.	.	.	24aa-'\
.	.	.	.	.	.	.	.	.	.	.	.	.	.	.	.	.	.	.	32e-/JJJ	.	.
.	.	.	.	.	.	.	.	.	8r	.	.	.	.	.	8r	.	.	.	32B-/LLL	.	24gg'\
.	.	.	.	.	.	.	.	.	.	.	.	.	.	.	.	.	.	.	32e-/	.	.
.	.	.	.	.	.	.	.	.	.	.	.	.	.	.	.	.	.	.	.	.	24ff'\
.	.	.	.	.	.	.	.	.	.	.	.	.	.	.	.	.	.	.	32g/	.	.
.	.	.	.	.	.	.	.	.	.	.	.	.	.	.	.	.	.	.	.	.	24ee-'\JJ
.	.	.	.	.	.	.	.	.	.	.	.	.	.	.	.	.	.	.	32e-/JJJ	.	.
.	.	.	.	.	.	.	.	.	8BB-/	.	4B-/	.	4f\	.	8BB-/	.	4A-\	.	32B-/LLL	.	(24dd\LL
.	.	.	.	.	.	.	.	.	.	.	.	.	.	.	.	.	.	.	32d/	.	.
.	.	.	.	.	.	.	.	.	.	.	.	.	.	.	.	.	.	.	.	.	24ff\)
.	.	.	.	.	.	.	.	.	.	.	.	.	.	.	.	.	.	.	32f/	.	.
.	.	.	.	.	.	.	.	.	.	.	.	.	.	.	.	.	.	.	.	.	24gg'\
.	.	.	.	.	.	.	.	.	.	.	.	.	.	.	.	.	.	.	32d/JJJ	.	.
.	.	.	.	.	.	.	.	.	8r	.	.	.	.	.	8r	.	.	.	32B-/LLL	.	24aa-'\
.	.	.	.	.	.	.	.	.	.	.	.	.	.	.	.	.	.	.	32d/	.	.
.	.	.	.	.	.	.	.	.	.	.	.	.	.	.	.	.	.	.	.	.	24ff'\
.	.	.	.	.	.	.	.	.	.	.	.	.	.	.	.	.	.	.	32f/	.	.
.	.	.	.	.	.	.	.	.	.	.	.	.	.	.	.	.	.	.	.	.	24dd'\JJ
.	.	.	.	.	.	.	.	.	.	.	.	.	.	.	.	.	.	.	32d/JJJ	.	.
!	!	!	!	!	!	!	!	!	!	!	!	!	!	!	!LO:LB:g=original	!	!	!	!	!	!LO:LB:g=original
=29	=29	=29	=29	=29	=29	=29	=29	=29	=29	=29	=29	=29	=29	=29	=29	=29	=29	=29	=29	=29	=29
!LO:N:vis=00	!	!	!LO:N:vis=00	!	!	!	!	!	!	!	!	!	!	!	!	!	!	!	!	!	!
0r	.	.	0r	.	.	2r	.	.	4BB-/	.	4B-/	.	4f\	.	4BB-/	.	4A-\	.	8.a-\L	.	8.ff\L
.	.	.	.	.	.	.	.	.	.	.	.	.	.	.	.	.	.	.	32b-\LL	.	32gg\LL
.	.	.	.	.	.	.	.	.	.	.	.	.	.	.	.	.	.	.	32a-\JJJ	.	32ff\JJJ
.	.	.	.	.	.	.	.	.	8E-\	.	8G/	.	8e-\	.	8E-\	.	8G\	.	8g\	.	8ee-\
.	.	.	.	.	.	.	.	.	8r	.	8r	.	8r	.	8r	.	8r	.	8r	.	8r
!	!	!	!	!	!	!	!	!	!	!	!	!	!	!	!	!	!LO:LB:g=original	!	!	!	!
=30	=30	=30	=30	=30	=30	=30	=30	=30	=30	=30	=30	=30	=30	=30	=30	=30	=30	=30	=30	=30	=30
!	!	!	!	!	!	!LO:TX:a:t=Solo	!	!	!	!	!LO:TX:a:t=7	!	!LO:TX:a:t=3.	!	!LO:TX:a:t=P:problem:mixed beam	!	!	!	!	!	!
!	!	!	!	!	!	!	!	!	!	!	!LO:N:vis=00	!	!LO:N:vis=00	!	!	!	!	!	!	!	!
.	.	.	.	.	.	8.e-\	Be-	.	8E-\	.	0r	.	1r	.	16EE-/LL	.	16r	.	16r	.	8.ee-\L
.	.	.	.	.	.	.	.	.	.	.	.	.	.	.	16E-\	.	16G\LL	.	16B-/LL	.	.
.	.	.	.	.	.	.	.	.	8r	.	.	.	.	.	16E-\	.	16G\	.	16B-/	.	.
.	.	.	.	.	.	(32d\LLL	-ne-	.	.	.	.	.	.	.	16E-\JJ	.	16G\JJ	.	16B-/JJ	.	32dd\LL
.	.	.	.	.	.	32c\JJJ)	.	.	.	.	.	.	.	.	.	.	.	.	.	.	32cc\JJJ
.	.	.	.	.	.	(16B-\LL	-di-	.	4r	.	.	.	.	.	16E-\LL	.	16G\LL	.	16B-/LL	.	16b-\LL
.	.	.	.	.	.	16Bn\JJ)	.	.	.	.	.	.	.	.	16E-\	.	16G\	.	16B-/	.	16bX\
.	.	.	.	.	.	16c\	-ctus	.	.	.	.	.	.	.	16E-\	.	16G\	.	16B-/	.	16cc\
.	.	.	.	.	.	16G\	qui	.	.	.	.	.	.	.	16E-\JJ	.	16G\JJ	.	16B-/JJ	.	16g\JJ
=31	=31	=31	=31	=31	=31	=31	=31	=31	=31	=31	=31	=31	=31	=31	=31	=31	=31	=31	=31	=31	=31
!	!	!	!	!	!	!	!	!	!	!	!	!	!	!	!LO:TX:a:t=P:problem:mixed beam	!	!	!	!	!	!
.	.	.	.	.	.	(16B-\LL	ve-	.	8AA-/	.	.	.	.	.	16AA-/LL	.	16r	.	16r	.	16b-\LL
.	.	.	.	.	.	16A-\JJ)	.	.	.	.	.	.	.	.	16A-\	.	16A-\LL	.	16c/LL	.	16a-\J
.	.	.	.	.	.	8A-\	-nit	.	8r	.	.	.	.	.	16A-\	.	16A-\	.	16c/	.	8a-\J
.	.	.	.	.	.	.	.	.	.	.	.	.	.	.	16A-\JJ	.	16A-\JJ	.	16c/JJ	.	.
.	.	.	.	.	.	4r	.	.	4r	.	.	.	.	.	16A-\LL	.	16A-\LL	.	16c/LL	.	16r
.	.	.	.	.	.	.	.	.	.	.	.	.	.	.	16A-\	.	16A-\	.	16c/	.	16b-\LL
.	.	.	.	.	.	.	.	.	.	.	.	.	.	.	16A-\	.	16A-\	.	16c/	.	16dd\
.	.	.	.	.	.	.	.	.	.	.	.	.	.	.	16A-\JJ	.	16A-\JJ	.	16c/JJ	.	16ee-\JJ
!	!	!	!	!	!	!	!	!	!	!	!	!	!	!	!	!	!	!	!LO:LB:g=original	!	!
=32	=32	=32	=32	=32	=32	=32	=32	=32	=32	=32	=32	=32	=32	=32	=32	=32	=32	=32	=32	=32	=32
.	.	.	.	.	.	8.f\	Be-	.	8BB-/	.	.	.	2r	.	16BBB-/LL	.	16r	.	16r	.	8.ff\L
.	.	.	.	.	.	.	.	.	.	.	.	.	.	.	16BB-/	.	16A-\LL	.	16d/LL	.	.
.	.	.	.	.	.	.	.	.	8r	.	.	.	.	.	16BB-/	.	16A-\	.	16d/	.	.
.	.	.	.	.	.	16d\	-ne-	.	.	.	.	.	.	.	16BB-/JJ	.	16A-\JJ	.	16d/JJ	.	16dd\Jk
.	.	.	.	.	.	(16B-\LL	-di-	.	4r	.	.	.	.	.	16BB-/LL	.	16A-\LL	.	16d/LL	.	16b-\LL
.	.	.	.	.	.	16A-\JJ)	.	.	.	.	.	.	.	.	16BB-/	.	16A-\	.	16d/	.	16a-\
.	.	.	.	.	.	16F/	-ctus	.	.	.	.	.	.	.	16BB-/	.	16A-\	.	16d/	.	16f\
.	.	.	.	.	.	16B-\	qui	.	.	.	.	.	.	.	16BB-/JJ	.	16A-\JJ	.	16d/JJ	.	16b-\JJ
!	!	!	!LO:LB:g=original	!	!	!LO:LB:g=original	!	!	!LO:LB:g=original	!	!	!	!	!	!	!	!	!	!	!	!
=33	=33	=33	=33	=33	=33	=33	=33	=33	=33	=33	=33	=33	=33	=33	=33	=33	=33	=33	=33	=33	=33
!	!	!	!	!	!	!	!	!	!	!	!	!	!	!LO:DY:b	!	!	!	!	!	!	!
4r	.	.	4r	.	.	(16A-\LL	ve-	.	8E-\	.	.	.	[2e-\	p	8E-\	.	8G\	.	16d/LL	.	(16a-\LL
.	.	.	.	.	.	16G\JJ)	.	.	.	.	.	.	.	.	.	.	.	.	16e-/J	.	16g\J)
.	.	.	.	.	.	8G/	-nit	.	8r	.	.	.	.	.	8r	.	8r	.	8e-/J	.	8g'\J
4E-\	qui	.	4A-\	qui	.	16r	.	.	[4E-\	.	.	.	.	.	(4A-^\	.	(4c^\	.	(4a-^\	.	(4cc^\
.	.	.	.	.	.	(16c\LL	qui	.	.	.	.	.	.	.	.	.	.	.	.	.	.
.	.	.	.	.	.	16d\	.	.	.	.	.	.	.	.	.	.	.	.	.	.	.
.	.	.	.	.	.	16e-\JJ)	.	.	.	.	.	.	.	.	.	.	.	.	.	.	.
!LO:LB:g=original	!	!	!	!	!	!	!	!	!	!	!	!	!	!	!LO:LB:g=original	!	!	!	!	!	!LO:LB:g=original
=34	=34	=34	=34	=34	=34	=34	=34	=34	=34	=34	=34	=34	=34	=34	=34	=34	=34	=34	=34	=34	=34
!	!	!	!	!	!	!	!	!	!	!	!LO:N:vis=0	!	!	!	!	!	!	!	!	!	!
8E-\	ve-	.	8G/	ve-	.	(16Bn\LL	ve-	.	8E-\]	.	1r	.	2e-\]	.	8G\)	.	8B-\)	.	8g\)	.	8b-\)
.	.	.	.	.	.	16c\JJ)	.	.	.	.	.	.	.	.	.	.	.	.	.	.	.
16E-\	-nit	.	16G/	-nit	.	16e-\	-nit	.	8r	.	.	.	.	.	8r	.	8r	.	8r	.	8r
16E-\	in	.	16G/	in	.	16d\	in	.	.	.	.	.	.	.	.	.	.	.	.	.	.
8.E-\	no-	.	8.A-\	no-	.	(16B\LL	no-	.	[4E-\	.	.	.	.	.	(4A-^\	.	(4c^\	.	(4a-^\	.	(4cc^\
.	.	.	.	.	.	16c\JJ)	.	.	.	.	.	.	.	.	.	.	.	.	.	.	.
.	.	.	.	.	.	16d\	-mi-	.	.	.	.	.	.	.	.	.	.	.	.	.	.
16E-\	-mi-	.	16A-\	-mi-	.	16e-\	-ne	.	.	.	.	.	.	.	.	.	.	.	.	.	.
!	!	!	!	!	!	!	!	!	!	!	!	!	!	!	!	!	!LO:LB:g=original	!	!	!	!
=35	=35	=35	=35	=35	=35	=35	=35	=35	=35	=35	=35	=35	=35	=35	=35	=35	=35	=35	=35	=35	=35
4E-\	-ne	.	4G/	-ne	.	(16Bn\LL	Do-	.	8E-\]	.	.	.	8e-\	.	8G\)	.	8B-\)	.	8g\)	.	8b-\)
.	.	.	.	.	.	16c\JJ)	.	.	.	.	.	.	.	.	.	.	.	.	.	.	.
.	.	.	.	.	.	(16e-\LL	-mi-	.	8r	.	.	.	8r	.	8r	.	8r	.	8r	.	8r
.	.	.	.	.	.	16d\JJ)	.	.	.	.	.	.	.	.	.	.	.	.	.	.	.
4r	.	.	4r	.	.	8c\	-ni	.	4r	.	.	.	4r	.	8A-\L	.	8c\L	.	8cc\L	.	8cc\L
.	.	.	.	.	.	(16d\LL	qui	.	.	.	.	.	.	.	8G\J	.	8B-\J	.	8b-^\J	.	16dd\L
.	.	.	.	.	.	16en\JJ)	.	.	.	.	.	.	.	.	.	.	.	.	.	.	16eeX\JJ
!	!	!	!	!	!	!LO:LB:g=original	!	!	!	!	!	!	!	!	!	!	!	!	!	!	!
=36	=36	=36	=36	=36	=36	=36	=36	=36	=36	=36	=36	=36	=36	=36	=36	=36	=36	=36	=36	=36	=36
!LO:TX:a:t=2	!	!	!LO:TX:a:t=2	!	!	!	!	!	!LO:TX:a:t=1.	!	!	!	!LO:TX:a:t=1.	!	!	!	!	!	!	!	!
!LO:N:vis=0	!	!	!LO:N:vis=0	!	!	!	!	!	!	!	!	!	!	!	!	!	!	!	!	!	!
1r	.	.	1r	.	.	(8.f\L	ve-	.	2r	.	2r	.	2r	.	4F\	.	4A-\	.	4a-\	.	8.ff\L
.	.	.	.	.	.	16e-X\Jk)	.	.	.	.	.	.	.	.	.	.	.	.	.	.	16ee-\Jk
.	.	.	.	.	.	(16d\LL	-nit	.	.	.	.	.	.	.	4r	.	4r	.	4r	.	16dd\LL
.	.	.	.	.	.	16c\JJ)	.	.	.	.	.	.	.	.	.	.	.	.	.	.	16cc\
.	.	.	.	.	.	(16B-\LL	in	.	.	.	.	.	.	.	.	.	.	.	.	.	16b-\
.	.	.	.	.	.	16A-\JJ)	.	.	.	.	.	.	.	.	.	.	.	.	.	.	16a-\JJ
=37	=37	=37	=37	=37	=37	=37	=37	=37	=37	=37	=37	=37	=37	=37	=37	=37	=37	=37	=37	=37	=37
.	.	.	.	.	.	(16G\LL	no-	.	8GG/	.	4r	.	4e-\	.	4G\	.	4e-\	.	4b-\	.	16g\LL
.	.	.	.	.	.	16e-\JJ)	.	.	.	.	.	.	.	.	.	.	.	.	.	.	16ee-\
.	.	.	.	.	.	16d\	-mi-	.	8r	.	.	.	.	.	.	.	.	.	.	.	16dd\
.	.	.	.	.	.	16c\	-ne	.	.	.	.	.	.	.	.	.	.	.	.	.	16cc\JJ
.	.	.	.	.	.	(16Bn\LL	no-	.	8AA-/	.	4e-\	.	4f\	.	4A-\	.	4c\	.	4cc\	.	16bX\LL
.	.	.	.	.	.	16c\JJ)	.	.	.	.	.	.	.	.	.	.	.	.	.	.	16cc\
.	.	.	.	.	.	16g\	-mi-	.	8r	.	.	.	.	.	.	.	.	.	.	.	16gg\
.	.	.	.	.	.	16f\	-ne	.	.	.	.	.	.	.	.	.	.	.	.	.	16ff\JJ
!	!	!	!	!	!	!	!	!	!	!	!LO:LB:g=originalv	!	!	!	!	!	!	!	!LO:LB:g=original	!	!
=38	=38	=38	=38	=38	=38	=38	=38	=38	=38	=38	=38	=38	=38	=38	=38	=38	=38	=38	=38	=38	=38
!	!	!	!	!	!	!	!	!	!	!	!	!	!	!	!LO:TX:a:t=P:problem:mixed beam	!	!	!	!	!	!
8BB-/	no-	.	8G/	no-	.	8f\	no-	.	8BB-/	.	16r	.	16r	.	16BB-/LL	.	16r	.	16g\LL	.	(8ff\L
.	.	.	.	.	.	.	.	.	.	.	16G/LL	.	16e-\LL	.	16B-\	.	16B-\LL	.	16b-\	.	.
16BB-/	-mi-	.	16G/	-mi-	.	16e-\	-mi-	.	8r	.	16G/	.	16e-\	.	16B-\	.	16B-\	.	16g\	.	16ee-\L)
16BB-/	-ne	.	16G/	-ne	.	16e-\	-ne	.	.	.	16G/JJ	.	16e-\JJ	.	16B-\JJ	.	16B-\JJ	.	16b-\JJ	.	16ee-'\JJ
8BB-/	Do-	.	8A-\	Do-	.	(16e-\LL	Do-	.	8BB-/	.	16r	.	16r	.	16BB-/LL	.	16r	.	16a-\LL	.	16ee-\LL
.	.	.	.	.	.	16d\JJ)	.	.	.	.	16B-/LL	.	16f\LL	.	16BB-/	.	16A-\LL	.	16b-\	.	16dd\
8BB-/	-mi-	.	8A-\	-mi-	.	16c\LL	-mi-	.	8r	.	16B-/	.	16f\	.	16BB-/	.	16A-\	.	16a-\	.	16cc\
.	.	.	.	.	.	16d\JJ	.	.	.	.	16B-/JJ	.	16f\JJ	.	16BB-/JJ	.	16A-\JJ	.	16b-\JJ	.	16dd\JJ
!	!	!	!	!	!	!LO:LB:g=original	!	!	!	!	!	!	!LO:LB:g=original	!	!	!	!	!	!	!	!LO:LB:g=original
=39	=39	=39	=39	=39	=39	=39	=39	=39	=39	=39	=39	=39	=39	=39	=39	=39	=39	=39	=39	=39	=39
4E-\	-ni	.	4G/	-ni	.	4e-\	-ni	.	8E-\	.	8G/	.	8e-\	.	8E-\	.	8G\	.	8g/	.	8ee-\
.	.	.	.	.	.	.	.	.	8r	.	8r	.	8r	.	8r	.	8r	.	32r	.	32r
.	.	.	.	.	.	.	.	.	.	.	.	.	.	.	.	.	.	.	32b-\LLL	.	32bb-\LLL
.	.	.	.	.	.	.	.	.	.	.	.	.	.	.	.	.	.	.	32a\	.	32aa\
.	.	.	.	.	.	.	.	.	.	.	.	.	.	.	.	.	.	.	32b-\JJJ	.	32bb-\JJJ
4r	.	.	4r	.	.	4r	.	.	4r	.	4r	.	4r	.	4r	.	4r	.	16cc\LL	.	16ccc\LL
.	.	.	.	.	.	.	.	.	.	.	.	.	.	.	.	.	.	.	16b-\	.	16bb-\
.	.	.	.	.	.	.	.	.	.	.	.	.	.	.	.	.	.	.	16g\	.	16gg\
.	.	.	.	.	.	.	.	.	.	.	.	.	.	.	.	.	.	.	16e-\JJ	.	16ee-\JJ
!LO:LB:g=original	!	!	!LO:LB:g=original	!	!	!	!	!	!	!	!	!	!	!	!LO:LB:g=original	!	!	!	!	!	!
=40	=40	=40	=40	=40	=40	=40	=40	=40	=40	=40	=40	=40	=40	=40	=40	=40	=40	=40	=40	=40	=40
!	!	!	!	!	!	!	!	!	!	!	!	!	!	!	!	!	!	!	!	!	!LO:TX:a:t=P:problem:klamra łukowa z numerem
8B-\	O-	.	8A-\	O-	.	8d\	O-	.	8BB-'/L	.	8B-'/L	.	8f'\L	.	8BB-'/L	.	8d'\L	.	8a-'\L	.	24dd\LL
.	.	.	.	.	.	.	.	.	.	.	.	.	.	.	.	.	.	.	.	.	24ff\
.	.	.	.	.	.	.	.	.	.	.	.	.	.	.	.	.	.	.	.	.	24ee-\JJ
*	*	*	*	*	*	*	*	*	*	*	*	*	*	*	*	*	*	*	*	*	*Xtuplet
!	!	!	!	!	!	!	!	!	!	!	!	!	!	!	!	!	!	!	!	!	!LO:TX:a:t=P:problem:triole bez numeru i łuku
16B-\	-san-	.	16A-\	-san-	.	16d\	-san-	.	8BB-'/	.	8B-'/	.	8f'\	.	8BB-'/	.	8d'\	.	8a-'\	.	24dd\LL
.	.	.	.	.	.	.	.	.	.	.	.	.	.	.	.	.	.	.	.	.	24aa-\
16B-\	-na	.	16A-\	-na	.	16d\	-na	.	.	.	.	.	.	.	.	.	.	.	.	.	.
.	.	.	.	.	.	.	.	.	.	.	.	.	.	.	.	.	.	.	.	.	24gg\JJ
8B-\	in	.	8A-\	in	.	8d\	in	.	8BB-'/	.	8B-'/	.	8f'\	.	8BB-'/	.	8d'\	.	8a-'\	.	24ff\LL
.	.	.	.	.	.	.	.	.	.	.	.	.	.	.	.	.	.	.	.	.	24ccc\
.	.	.	.	.	.	.	.	.	.	.	.	.	.	.	.	.	.	.	.	.	24bb-\JJ
8B-\	ex-	.	8A-\	ex-	.	8d\	ex-	.	8BB-'/J	.	8B-'/J	.	8f'\J	.	8BB-'/J	.	8d'\J	.	8a-'\J	.	24aa-\LL
.	.	.	.	.	.	.	.	.	.	.	.	.	.	.	.	.	.	.	.	.	24cc\
.	.	.	.	.	.	.	.	.	.	.	.	.	.	.	.	.	.	.	.	.	24dd\JJ
!	!	!	!	!	!	!	!	!	!LO:LB:g=original	!	!	!	!	!	!	!	!LO:LB:g=original	!	!	!	!
=41	=41	=41	=41	=41	=41	=41	=41	=41	=41	=41	=41	=41	=41	=41	=41	=41	=41	=41	=41	=41	=41
*	*	*	*	*	*	*	*	*	*	*	*	*	*	*	*	*	*	*	*	*	*tuplet
8E-\	-cel-	.	8G\	-cel-	.	8e-\	-cel-	.	8E-\	.	8G/	.	8e-\	.	8E-\	.	8e-\	.	8g/	.	8ee-\
8E-\	-sis	.	8G\	-sis	.	8e-\	-sis	.	8r	.	8r	.	8r	.	8r	.	8r	.	32r	.	32r
.	.	.	.	.	.	.	.	.	.	.	.	.	.	.	.	.	.	.	32b-\LLL	.	32bb-\LLL
.	.	.	.	.	.	.	.	.	.	.	.	.	.	.	.	.	.	.	32a\	.	32aa\
.	.	.	.	.	.	.	.	.	.	.	.	.	.	.	.	.	.	.	32b-\JJJ	.	32bb-\JJJ
!	!	!	!	!	!	!	!	!	!	!	!	!	!	!	!	!	!	!	!LO:TX:a:t=P:problem:klamra łukowa z numerem	!	!LO:TX:a:t=P:problem:klamra łukowa z numerem
4r	.	.	4r	.	.	4r	.	.	4r	.	4r	.	4r	.	4r	.	4r	.	24cc'\LL	.	24ccc\LL
.	.	.	.	.	.	.	.	.	.	.	.	.	.	.	.	.	.	.	24b-'\	.	24bb-\
!	!	!	!	!	!	!	!	!	!	!	!	!	!	!	!	!	!	!	!	!	!LO:SIC:s=16bb-:v
.	.	.	.	.	.	.	.	.	.	.	.	.	.	.	.	.	.	.	24a-X'\	.	24aa\
.	.	.	.	.	.	.	.	.	.	.	.	.	.	.	.	.	.	.	24g'\	.	24gg\
.	.	.	.	.	.	.	.	.	.	.	.	.	.	.	.	.	.	.	24f'\	.	24ff\
.	.	.	.	.	.	.	.	.	.	.	.	.	.	.	.	.	.	.	24e-'\JJ	.	24ee-\JJ
!	!	!	!	!	!	!	!	!	!	!	!	!	!	!	!	!	!	!	!LO:LB:g=original	!	!
=42	=42	=42	=42	=42	=42	=42	=42	=42	=42	=42	=42	=42	=42	=42	=42	=42	=42	=42	=42	=42	=42
8BB-/	in	.	8A-\	in	.	8d\	in	.	8BB-/L	.	8B-'/L	.	8f'\L	.	8BB-/L	.	8d'\L	.	8a-'\L	.	24dd\LL
.	.	.	.	.	.	.	.	.	.	.	.	.	.	.	.	.	.	.	.	.	24b-\
.	.	.	.	.	.	.	.	.	.	.	.	.	.	.	.	.	.	.	.	.	24dd\JJ
8BB-/	ex-	.	8A-\	ex-	.	8d\	ex-	.	8BB-/	.	8B-'/	.	8f'\	.	8BB-/	.	8d'\	.	8a-'\	.	24ff\LL
.	.	.	.	.	.	.	.	.	.	.	.	.	.	.	.	.	.	.	.	.	24dd\
.	.	.	.	.	.	.	.	.	.	.	.	.	.	.	.	.	.	.	.	.	24ff\JJ
4BB-/	-cel-	.	4A-\	-cel-	.	4d\	-cel-	.	8BB-/	.	8B-'/	.	8f'\	.	8BB-/	.	8d'\	.	8a-'\	.	24aa-\LL
.	.	.	.	.	.	.	.	.	.	.	.	.	.	.	.	.	.	.	.	.	24ff\
.	.	.	.	.	.	.	.	.	.	.	.	.	.	.	.	.	.	.	.	.	24aa-\JJ
.	.	.	.	.	.	.	.	.	8BB-/J	.	8B-'/J	.	8f'\J	.	8BB-/J	.	8d'\J	.	8a-'\J	.	24ccc\LL
.	.	.	.	.	.	.	.	.	.	.	.	.	.	.	.	.	.	.	.	.	24bb-\
.	.	.	.	.	.	.	.	.	.	.	.	.	.	.	.	.	.	.	.	.	24dd\JJ
!	!	!	!	!	!	!	!	!	!	!	!LO:LB:g=original	!	!	!	!	!	!	!	!	!	!LO:LB:g=original
=43	=43	=43	=43	=43	=43	=43	=43	=43	=43	=43	=43	=43	=43	=43	=43	=43	=43	=43	=43	=43	=43
*	*	*	*	*	*	*	*	*	*	*	*	*	*	*	*	*	*	*	*Xtuplet	*	*Xtuplet
4E-\	-sis	.	4G/	-sis	.	4e-\	-sis	.	4E-\	.	4G/	.	4e-\	.	4E-\	.	4e-\	.	4g\	.	4ee-\
!	!	!	!	!	!	!	!	!	!	!	!	!	!	!	!	!	!	!	!LO:TX:a:t=P:problem:triole bez numeru i łuku	!	!LO:TX:a:t=P:problem:triole bez numeru i łuku
4r	.	.	4r	.	.	4r	.	.	8E-\L	.	8G/L	.	8e-\L	.	8E-\L	.	8B-\L	.	24E-/LL	.	24e-'\LL
.	.	.	.	.	.	.	.	.	.	.	.	.	.	.	.	.	.	.	24G/	.	24g'\
.	.	.	.	.	.	.	.	.	.	.	.	.	.	.	.	.	.	.	24B-/JJ	.	24b-'\JJ
.	.	.	.	.	.	.	.	.	8E-\J	.	8G/J	.	8e-\J	.	8E-\J	.	8B-\J	.	24e-/LL	.	24ee-'\LL
.	.	.	.	.	.	.	.	.	.	.	.	.	.	.	.	.	.	.	24g/	.	24gg'\
.	.	.	.	.	.	.	.	.	.	.	.	.	.	.	.	.	.	.	24b-/JJ	.	24bb-'\JJ
=44	=44	=44	=44	=44	=44	=44	=44	=44	=44	=44	=44	=44	=44	=44	=44	=44	=44	=44	=44	=44	=44
!LO:TX:a:t=2	!	!	!LO:TX:a:t=1.	!	!	!LO:TX:a:t=2	!	!	!	!	!	!	!	!	!	!	!	!	!	!	!
!LO:N:vis=0	!	!	!	!	!	!LO:N:vis=0	!	!	!	!	!	!	!	!	!	!	!	!	!	!	!
1r;	.	.	2r	.	.	1r;	.	.	8E-\	.	8G/	.	8e-\	.	8E-\	.	8B-\	.	8ee-\	.	8eee-\
.	.	.	.	.	.	.	.	.	8r	.	8r	.	8r	.	8r	.	8r	.	8r	.	8r
.	.	.	.	.	.	.	.	.	8E-\L	.	8G/L	.	8e-\L	.	8E-\L	.	8B-\L	.	8g/L	.	8ee-'\L
.	.	.	.	.	.	.	.	.	8E-\J	.	8G/J	.	8e-\J	.	8E-\J	.	8B-\J	.	8g/J	.	8ee-'\J
!	!	!	!	!	!	!	!	!	!	!	!	!	!	!	!LO:LB:g=original	!	!	!	!	!	!
=45	=45	=45	=45	=45	=45	=45	=45	=45	=45	=45	=45	=45	=45	=45	=45	=45	=45	=45	=45	=45	=45
!	!	!	!LO:TX:a:t=1	!	!	!	!	!	!	!	!	!	!	!	!	!	!	!	!	!	!
.	.	.	2r;	.	.	.	.	.	2E-;\	.	2G;/	.	2e-;\	.	2E-;\	.	2B-;\	.	2g;/	.	2ee-;\
==;;	==	==	==;;	==	==	==;;	==	==	==;;	==	==;;	==	==;;	==	==;;	==	==;;	==	==;;	==	==;;
*-	*-	*-	*-	*-	*-	*-	*-	*-	*-	*-	*-	*-	*-	*-	*-	*-	*-	*-	*-	*-	*-
!!!system-decoration: [(g1)][(g2)][(g3)]
!!!ENC:Anna Matuszewska
!!!END:2020-12-28
!!!ENC: Andrzej Kubiczek
!!!END: 2020-07-02
